X: 13398
T: Flinn
R: jig
M: 6/8
K: Cmajor
c|cGc c3/2d/c|{c}BGB c2d|e/f/ge f/g/af|egg c'2d'|
c'ba gfe|{g}f/e/f/g/a d3/2e/d|B2G dB/c/d|c3{Bd}c2:|
|:G|GEG {A}GEG|AFA AFA|B/c/dd de/d/c|BGg g2f|
{f}edc cc'c|cc'g afd|e/f/gg ga/g/f|ef/e/d/ c/dBG|
cAF FAF|GBG gfe|f/g/ad {c}BGB|c3{Bcd}c2:|

